SVG_Azure_All/Storage Account Networking.svg

<?xml version="1.0" encoding="UTF-8" standalone="no"?>
<!-- Generated by Microsoft Visio, SVG Export Storage Account Networking.svg Page-1 -->

<svg
   xmlns:dc="http://purl.org/dc/elements/1.1/"
   xmlns:cc="http://creativecommons.org/ns#"
   xmlns:rdf="http://www.w3.org/1999/02/22-rdf-syntax-ns#"
   xmlns:svg="http://www.w3.org/2000/svg"
   xmlns="http://www.w3.org/2000/svg"
   xmlns:xlink="http://www.w3.org/1999/xlink"
   xmlns:sodipodi="http://sodipodi.sourceforge.net/DTD/sodipodi-0.dtd"
   xmlns:inkscape="http://www.inkscape.org/namespaces/inkscape"
   width="0.78736037in"
   height="0.71932328in"
   viewBox="0 0 56.689855 51.791328"
   xml:space="preserve"
   class="st10"
   version="1.1"
   id="svg101"
   sodipodi:docname="Storage Account Networking.svg"
   style="font-size:12px;overflow:visible;color-interpolation-filters:sRGB;fill:none;fill-rule:evenodd;stroke-linecap:square;stroke-miterlimit:3"
   inkscape:version="0.92.5 (2060ec1f9f, 2020-04-08)"><metadata
   id="metadata105"><rdf:RDF><cc:Work
       rdf:about=""><dc:format>image/svg+xml</dc:format><dc:type
         rdf:resource="http://purl.org/dc/dcmitype/StillImage" /></cc:Work></rdf:RDF></metadata><sodipodi:namedview
   pagecolor="#ffffff"
   bordercolor="#666666"
   borderopacity="1"
   objecttolerance="10"
   gridtolerance="10"
   guidetolerance="10"
   inkscape:pageopacity="0"
   inkscape:pageshadow="2"
   inkscape:window-width="640"
   inkscape:window-height="480"
   id="namedview103"
   showgrid="false"
   inkscape:zoom="1.4777723"
   inkscape:cx="37.795298"
   inkscape:cy="34.489035"
   inkscape:window-x="0"
   inkscape:window-y="0"
   inkscape:window-maximized="0"
   inkscape:current-layer="svg101" />
	<style
   type="text/css"
   id="style2">
	<![CDATA[
		.st1 {fill:#37c2b1;stroke:none;stroke-linecap:butt;stroke-width:34}
		.st2 {fill:url(#grad7-8)}
		.st3 {stroke:none;stroke-linecap:butt;stroke-width:34}
		.st4 {fill:#ffffff;fill-opacity:0.6;stroke:none;stroke-linecap:butt;stroke-width:34}
		.st5 {fill:#f2f2f2;fill-opacity:0.55;stroke:none;stroke-linecap:butt;stroke-width:34}
		.st6 {fill:url(#grad0-17);stroke:none;stroke-linecap:butt;stroke-width:34}
		.st7 {fill:url(#grad0-23);stroke:none;stroke-linecap:butt;stroke-width:34}
		.st8 {fill:#f2f2f2;fill-opacity:0.7;stroke:none;stroke-linecap:butt;stroke-width:34}
		.st9 {fill:#42e8ca;stroke:none;stroke-linecap:butt;stroke-width:34}
		.st10 {fill:none;fill-rule:evenodd;font-size:12px;overflow:visible;stroke-linecap:square;stroke-miterlimit:3}
	]]>
	</style>

	<defs
   id="Patterns_And_Gradients">
		<radialGradient
   id="grad7-8"
   cx="-4.448124"
   cy="81.228141"
   r="59.656983"
   gradientTransform="scale(0.99900341,1.0009976)"
   fx="-4.448124"
   fy="81.228141"
   gradientUnits="userSpaceOnUse">
			<stop
   offset="0.185"
   stop-color="#5ea0ef"
   stop-opacity="1"
   id="stop4" />
			<stop
   offset="1"
   stop-color="#0078d4"
   stop-opacity="1"
   id="stop6" />
		</radialGradient>
		<linearGradient
   id="grad0-17"
   x1="0"
   y1="0"
   x2="1"
   y2="0"
   gradientTransform="rotate(-90.447754,0.5,0.5)">
			<stop
   offset="0"
   stop-color="#cccccc"
   stop-opacity="1"
   id="stop9" />
			<stop
   offset="0.125"
   stop-color="#d7d7d7"
   stop-opacity="1"
   id="stop11" />
			<stop
   offset="1"
   stop-color="#fcfcfc"
   stop-opacity="1"
   id="stop13" />
		</linearGradient>
		<linearGradient
   id="grad0-23"
   x1="0"
   y1="0"
   x2="1"
   y2="0"
   gradientTransform="rotate(-90,0.5,0.5)">
			<stop
   offset="0"
   stop-color="#cccccc"
   stop-opacity="1"
   id="stop16" />
			<stop
   offset="0.125"
   stop-color="#d7d7d7"
   stop-opacity="1"
   id="stop18" />
			<stop
   offset="1"
   stop-color="#fcfcfc"
   stop-opacity="1"
   id="stop20" />
		</linearGradient>
	<linearGradient
   inkscape:collect="always"
   xlink:href="#grad0-17"
   id="linearGradient4615"
   gradientTransform="scale(1.0008946,0.99910621)"
   x1="-8.8738458e-16"
   y1="105.99197"
   x2="13.889934"
   y2="105.99197"
   gradientUnits="userSpaceOnUse" /><linearGradient
   inkscape:collect="always"
   xlink:href="#grad0-23"
   id="linearGradient4617"
   gradientTransform="scale(1.0008957,0.99910511)"
   x1="0"
   y1="110.85674"
   x2="9.0249965"
   y2="110.85674"
   gradientUnits="userSpaceOnUse" /><linearGradient
   inkscape:collect="always"
   xlink:href="#grad0-23"
   id="linearGradient4619"
   gradientTransform="scale(1.0008945,0.99910629)"
   x1="0"
   y1="110.29629"
   x2="9.5851264"
   y2="110.29629"
   gradientUnits="userSpaceOnUse" /><linearGradient
   inkscape:collect="always"
   xlink:href="#grad0-17"
   id="linearGradient4621"
   gradientTransform="scale(1.0008946,0.99910621)"
   x1="-8.8738458e-16"
   y1="105.99197"
   x2="13.889934"
   y2="105.99197"
   gradientUnits="userSpaceOnUse" /><linearGradient
   inkscape:collect="always"
   xlink:href="#grad0-23"
   id="linearGradient4623"
   gradientTransform="scale(1.0008957,0.99910511)"
   x1="0"
   y1="110.85674"
   x2="9.0249965"
   y2="110.85674"
   gradientUnits="userSpaceOnUse" /></defs>
	<g
   id="g99"
   transform="translate(-34.00016,-33.962973)">
		<title
   id="title24">Page-1</title>
		<g
   id="group953-1"
   transform="translate(34,-34.0157)">
			<title
   id="title26">Storage Account Networking</title>
			<g
   id="group954-2">
				<title
   id="title28">MsPortalFx.base.images-20</title>
				<g
   id="shape955-3"
   transform="translate(0,-3.05595)">
					<title
   id="title30">Sheet.955</title>
					<path
   d="m 0,119.77 h 56.69 l -9.01,-9.81 a 1.92756,1.92411 -180 0 0 -1.42,-0.63 H 11.9 a 1.91496,1.91154 -180 0 0 -1.31,0.52 z"
   class="st1"
   id="path32"
   inkscape:connector-curvature="0"
   style="fill:#37c2b1;stroke:none;stroke-width:34;stroke-linecap:butt" />
				</g>
				<g
   id="shape956-5"
   transform="translate(11.9015,-13.3305)">
					<title
   id="title35">Sheet.956</title>
					<path
   d="M 29.99,119.77 A 21.6252,21.5866 0 0 1 3.5,85.66 L 3.71,85.49 A 21.6252,21.5866 0 0 1 30,119.76 Z"
   class="st2"
   id="path37"
   inkscape:connector-curvature="0"
   style="fill:url(#grad7-8)" />
					<path
   d="M 29.99,119.77 A 21.6252,21.5866 0 0 1 3.5,85.66 L 3.71,85.49 A 21.6252,21.5866 0 0 1 30,119.76"
   class="st3"
   id="path39"
   inkscape:connector-curvature="0"
   style="stroke:none;stroke-width:34;stroke-linecap:butt" />
				</g>
				<g
   id="shape957-10"
   transform="translate(9.93701,-15.5595)">
					<title
   id="title42">Sheet.957</title>
					<path
   d="m 2.13,109.13 a 47.852,47.7665 -180 0 0 -2.13,6.66 23.8488,23.8062 -180 0 0 1.57,2.34 21.2661,21.2281 -180 0 0 1.42,1.64 45.1244,45.0438 0 0 1 2.75,-8.8 6.92913,6.91675 0 0 1 -3.61,-1.84 z"
   class="st4"
   id="path44"
   inkscape:connector-curvature="0"
   style="fill:#ffffff;fill-opacity:0.6;stroke:none;stroke-width:34;stroke-linecap:butt" />
				</g>
				<g
   id="shape958-12"
   transform="translate(10,-35.5049)">
					<title
   id="title47">Sheet.958</title>
					<path
   d="m 4.56,117.55 a 30.378,30.3237 0 0 1 -1.76,-7.48 21.4488,21.4105 -180 0 0 -2.8,3.71 34.0787,34.0178 -180 0 0 1.45,5.99 6.98583,6.97334 0 0 1 3.11,-2.22 z"
   class="st5"
   id="path49"
   inkscape:connector-curvature="0"
   style="fill:#f2f2f2;fill-opacity:0.55;stroke:none;stroke-width:34;stroke-linecap:butt" />
				</g>
				<g
   id="shape959-14"
   transform="translate(9.93701,-24.2589)">
					<title
   id="title52">Sheet.959</title>
					<ellipse
   cx="6.95118"
   cy="112.836"
   rx="6.95118"
   ry="6.9387598"
   class="st6"
   id="ellipse54"
   style="fill:url(#linearGradient4615);stroke:none;stroke-width:34;stroke-linecap:butt" />
				</g>
				<g
   id="shape960-18"
   transform="translate(18.1638,-14.7547)">
					<title
   id="title57">Sheet.960</title>
					<path
   d="m 8.86,116 a 4.49134,4.48331 0 0 1 1.36,-3.22 30.4661,30.4117 0 0 1 -6.42,-4.72 6.92913,6.91675 0 0 1 -3.8,2.09 30.0598,30.0061 -180 0 0 3.69,3.26 31.3732,31.3172 -180 0 0 5.21,3.17 A 4.3622,4.35441 0 0 1 8.86,116 Z m 16.02,0.54 a 30.2362,30.1822 0 0 1 -7,-0.81 V 116 a 4.49764,4.4896 0 0 1 -1.29,3.15 35.222,35.1591 -180 0 0 8.68,0.62 21.6409,21.6023 -180 0 0 2.93,-3.41 30.9417,30.8864 0 0 1 -3.32,0.18 z"
   class="st5"
   id="path59"
   inkscape:connector-curvature="0"
   style="fill:#f2f2f2;fill-opacity:0.55;stroke:none;stroke-width:34;stroke-linecap:butt" />
				</g>
				<g
   id="shape961-20"
   transform="translate(27.0205,-14.019)">
					<title
   id="title62">Sheet.961</title>
					<ellipse
   cx="4.5165401"
   cy="115.266"
   rx="4.5165401"
   ry="4.50846"
   class="st7"
   id="ellipse64"
   style="fill:url(#linearGradient4617);stroke:none;stroke-width:34;stroke-linecap:butt" />
				</g>
				<g
   id="shape962-24"
   transform="translate(19.3449,-30.572)">
					<title
   id="title67">Sheet.962</title>
					<path
   d="m 10.99,110.05 a 34.4913,34.4297 0 0 1 15.11,-3.68 21.3071,21.269 -180 0 0 -3.78,-3.67 36.6614,36.5959 -180 0 0 -11.94,2.83 31.1654,31.1097 -180 0 0 -2.44,1.19 43.326,43.2486 0 0 1 -5.04,-7.4 21.2252,21.1873 -180 0 0 -2.77,1.07 45.3543,45.2733 -180 0 0 5.25,7.86 31.4961,31.4398 -180 0 0 -5.38,4.42 6.92913,6.91675 0 0 1 3.43,2.8 30.1386,30.0847 0 0 1 4.91,-3.92 69.8331,69.7083 -180 0 0 9.41,8.22 4.69291,4.68453 0 0 1 1.55,-2.51 67.452,67.3314 0 0 1 -8.31,-7.21 z"
   class="st8"
   id="path69"
   inkscape:connector-curvature="0"
   style="fill:#f2f2f2;fill-opacity:0.7;stroke:none;stroke-width:34;stroke-linecap:butt" />
				</g>
				<g
   id="shape963-26"
   transform="translate(37.0331,-24.9192)">
					<title
   id="title72">Sheet.963</title>
					<ellipse
   cx="4.7968502"
   cy="114.986"
   rx="4.7968502"
   ry="4.78828"
   class="st7"
   id="ellipse74"
   style="fill:url(#linearGradient4619);stroke:none;stroke-width:34;stroke-linecap:butt" />
				</g>
				<g
   id="shape964-29"
   transform="translate(44.8252,-23.6521)">
					<title
   id="title77">Sheet.964</title>
					<path
   d="M 5.06,116.95 4.25,116.52 4.17,116.48 3.41,116.07 3.28,116 2.6,115.62 2.42,115.52 1.62,115.07 A 4.54803,4.5399 0 0 1 0,117.42 l 0.94,0.54 0.22,0.12 0.88,0.49 0.09,0.05 c 0.72,0.39 1.45,0.77 2.2,1.15 a 20.8378,20.8006 -180 0 0 0.73,-2.82 z"
   class="st5"
   id="path79"
   inkscape:connector-curvature="0"
   style="fill:#f2f2f2;fill-opacity:0.55;stroke:none;stroke-width:34;stroke-linecap:butt" />
				</g>
				<g
   id="shape965-31"
   transform="translate(9.93701,-24.2589)">
					<title
   id="title82">Sheet.965</title>
					<ellipse
   cx="6.95118"
   cy="112.836"
   rx="6.95118"
   ry="6.9387598"
   class="st6"
   id="ellipse84"
   style="fill:url(#linearGradient4621);stroke:none;stroke-width:34;stroke-linecap:butt" />
				</g>
				<g
   id="shape966-34"
   transform="translate(27.0205,-14.019)">
					<title
   id="title87">Sheet.966</title>
					<ellipse
   cx="4.5165401"
   cy="115.266"
   rx="4.5165401"
   ry="4.50846"
   class="st7"
   id="ellipse89"
   style="fill:url(#linearGradient4623);stroke:none;stroke-width:34;stroke-linecap:butt" />
				</g>
				<g
   id="shape967-37">
					<title
   id="title92">Sheet.967</title>
					<path
   d="m 0,116.72 h 56.69 v 1.14 a 1.92126,1.91783 0 0 1 -1.92,1.91 H 1.92 A 1.92126,1.91783 0 0 1 0,117.86 Z"
   class="st9"
   id="path94"
   inkscape:connector-curvature="0"
   style="fill:#42e8ca;stroke:none;stroke-width:34;stroke-linecap:butt" />
				</g>
			</g>
		</g>
	</g>
</svg>

<?xml version="1.0" encoding="UTF-8" standalone="no"?>
<!DOCTYPE svg PUBLIC "-//W3C//DTD SVG 1.1//EN" "http://www.w3.org/Graphics/SVG/1.1/DTD/svg11.dtd">
<!-- Generated by Microsoft Visio, SVG Export Storage Account Networking.svg Page-1 -->
<svg xmlns="http://www.w3.org/2000/svg" xmlns:xlink="http://www.w3.org/1999/xlink" xmlns:ev="http://www.w3.org/2001/xml-events"
		width="1.73185in" height="1.66354in" viewBox="0 0 124.693 119.775" xml:space="preserve" color-interpolation-filters="sRGB"
		class="st10">
	<style type="text/css">
	<![CDATA[
		.st1 {fill:#37c2b1;stroke:none;stroke-linecap:butt;stroke-width:34}
		.st2 {fill:url(#grad7-8)}
		.st3 {stroke:none;stroke-linecap:butt;stroke-width:34}
		.st4 {fill:#ffffff;fill-opacity:0.6;stroke:none;stroke-linecap:butt;stroke-width:34}
		.st5 {fill:#f2f2f2;fill-opacity:0.55;stroke:none;stroke-linecap:butt;stroke-width:34}
		.st6 {fill:url(#grad0-17);stroke:none;stroke-linecap:butt;stroke-width:34}
		.st7 {fill:url(#grad0-23);stroke:none;stroke-linecap:butt;stroke-width:34}
		.st8 {fill:#f2f2f2;fill-opacity:0.7;stroke:none;stroke-linecap:butt;stroke-width:34}
		.st9 {fill:#42e8ca;stroke:none;stroke-linecap:butt;stroke-width:34}
		.st10 {fill:none;fill-rule:evenodd;font-size:12px;overflow:visible;stroke-linecap:square;stroke-miterlimit:3}
	]]>
	</style>

	<defs id="Patterns_And_Gradients">
		<radialGradient id="grad7-8" cx="0" cy="0" r="1.4">
			<stop offset="0.185" stop-color="#5ea0ef" stop-opacity="1"/>
			<stop offset="1" stop-color="#0078d4" stop-opacity="1"/>
		</radialGradient>
		<linearGradient id="grad0-17" x1="0" y1="0" x2="1" y2="0" gradientTransform="rotate(-90.447754088319 0.5 0.5)">
			<stop offset="0" stop-color="#cccccc" stop-opacity="1"/>
			<stop offset="0.125" stop-color="#d7d7d7" stop-opacity="1"/>
			<stop offset="1" stop-color="#fcfcfc" stop-opacity="1"/>
		</linearGradient>
		<linearGradient id="grad0-23" x1="0" y1="0" x2="1" y2="0" gradientTransform="rotate(-90 0.5 0.5)">
			<stop offset="0" stop-color="#cccccc" stop-opacity="1"/>
			<stop offset="0.125" stop-color="#d7d7d7" stop-opacity="1"/>
			<stop offset="1" stop-color="#fcfcfc" stop-opacity="1"/>
		</linearGradient>
	</defs>
	<g>
		<title>Page-1</title>
		<g id="group938-1" transform="translate(34,-34.0157)">
			<title>Storage Account Networking</title>
			<g id="group939-2">
				<title>MsPortalFx.base.images-20</title>
				<g id="shape940-3" transform="translate(0,-3.05595)">
					<title>Sheet.940</title>
					<path d="M0 119.77 L56.69 119.77 L47.68 109.96 A1.92756 1.92411 -180 0 0 46.26 109.33 L11.9 109.33 A1.91496 1.91154
								 -180 0 0 10.59 109.85 L0 119.77 Z" class="st1"/>
				</g>
				<g id="shape941-5" transform="translate(11.9015,-13.3305)">
					<title>Sheet.941</title>
					<path d="M29.99 119.77 A21.6252 21.5866 0 0 1 3.5 85.66 L3.71 85.49 A21.6252 21.5866 0 0 1 30 119.76 L29.99 119.77
								 Z" class="st2"/>
					<path d="M29.99 119.77 A21.6252 21.5866 0 0 1 3.5 85.66 L3.71 85.49 A21.6252 21.5866 0 0 1 30 119.76"
							class="st3"/>
				</g>
				<g id="shape942-10" transform="translate(9.93701,-15.5595)">
					<title>Sheet.942</title>
					<path d="M2.13 109.13 A47.852 47.7665 -180 0 0 -0 115.79 A23.8488 23.8062 -180 0 0 1.57 118.13 A21.2661 21.2281
								 -180 0 0 2.99 119.77 A45.1244 45.0438 0 0 1 5.74 110.97 A6.92913 6.91675 0 0 1 2.13 109.13 Z"
							class="st4"/>
				</g>
				<g id="shape943-12" transform="translate(10,-35.5049)">
					<title>Sheet.943</title>
					<path d="M4.56 117.55 A30.378 30.3237 0 0 1 2.8 110.07 A21.4488 21.4105 -180 0 0 0 113.78 A34.0787 34.0178 -180
								 0 0 1.45 119.77 A6.98583 6.97334 0 0 1 4.56 117.55 Z" class="st5"/>
				</g>
				<g id="shape944-14" transform="translate(9.93701,-24.2589)">
					<title>Sheet.944</title>
					<ellipse cx="6.95118" cy="112.836" rx="6.95118" ry="6.93876" class="st6"/>
				</g>
				<g id="shape945-18" transform="translate(18.1638,-14.7547)">
					<title>Sheet.945</title>
					<path d="M8.86 116 A4.49134 4.48331 0 0 1 10.22 112.78 A30.4661 30.4117 0 0 1 3.8 108.06 A6.92913 6.91675 0 0
								 1 0 110.15 A30.0598 30.0061 -180 0 0 3.69 113.41 A31.3732 31.3172 -180 0 0 8.9 116.58 A4.3622 4.35441
								 0 0 1 8.86 116 ZM24.88 116.54 A30.2362 30.1822 0 0 1 17.88 115.73 L17.88 116 A4.49764 4.4896 0 0
								 1 16.59 119.15 A35.222 35.1591 -180 0 0 25.27 119.77 A21.6409 21.6023 -180 0 0 28.2 116.36 A30.9417
								 30.8864 0 0 1 24.88 116.54 Z" class="st5"/>
				</g>
				<g id="shape946-20" transform="translate(27.0205,-14.019)">
					<title>Sheet.946</title>
					<ellipse cx="4.51654" cy="115.266" rx="4.51654" ry="4.50846" class="st7"/>
				</g>
				<g id="shape947-24" transform="translate(19.3449,-30.572)">
					<title>Sheet.947</title>
					<path d="M10.99 110.05 A34.4913 34.4297 0 0 1 26.1 106.37 A21.3071 21.269 -180 0 0 22.32 102.7 A36.6614 36.5959
								 -180 0 0 10.38 105.53 A31.1654 31.1097 -180 0 0 7.94 106.72 A43.326 43.2486 0 0 1 2.9 99.32 A21.2252
								 21.1873 -180 0 0 0.13 100.39 A45.3543 45.2733 -180 0 0 5.38 108.25 A31.4961 31.4398 -180 0 0 -0
								 112.67 A6.92913 6.91675 0 0 1 3.43 115.47 A30.1386 30.0847 0 0 1 8.34 111.55 A69.8331 69.7083 -180
								 0 0 17.75 119.77 A4.69291 4.68453 0 0 1 19.3 117.26 A67.452 67.3314 0 0 1 10.99 110.05 Z"
							class="st8"/>
				</g>
				<g id="shape948-26" transform="translate(37.0331,-24.9192)">
					<title>Sheet.948</title>
					<ellipse cx="4.79685" cy="114.986" rx="4.79685" ry="4.78828" class="st7"/>
				</g>
				<g id="shape949-29" transform="translate(44.8252,-23.6521)">
					<title>Sheet.949</title>
					<path d="M5.06 116.95 L4.25 116.52 L4.17 116.48 L3.41 116.07 L3.28 116 L2.6 115.62 L2.42 115.52 L1.62 115.07
								 A4.54803 4.5399 0 0 1 -0 117.42 L0.94 117.96 L1.16 118.08 L2.04 118.57 L2.13 118.62 C2.85 119.01
								 3.58 119.39 4.33 119.77 A20.8378 20.8006 -180 0 0 5.06 116.95 L5.06 116.95 Z" class="st5"/>
				</g>
				<g id="shape950-31" transform="translate(9.93701,-24.2589)">
					<title>Sheet.950</title>
					<ellipse cx="6.95118" cy="112.836" rx="6.95118" ry="6.93876" class="st6"/>
				</g>
				<g id="shape951-34" transform="translate(27.0205,-14.019)">
					<title>Sheet.951</title>
					<ellipse cx="4.51654" cy="115.266" rx="4.51654" ry="4.50846" class="st7"/>
				</g>
				<g id="shape952-37">
					<title>Sheet.952</title>
					<path d="M0 116.72 L56.69 116.72 L56.69 117.86 A1.92126 1.91783 0 0 1 54.77 119.77 L1.92 119.77 A1.92126 1.91783
								 0 0 1 -0 117.86 L0 116.72 Z" class="st9"/>
				</g>
			</g>
		</g>
	</g>
</svg>
